!!!COA:	Josquin des Prez
!!!CDT:	~1450-1521/08/27
!!!OTL:	Vray dieu d'amour
!!!AGN:	Chanson
!!!SCT:	NJE 27.36
!!!SCA:	New Josquin Edition 27.36
!!!voices:	3
**kern	**kern	**kern
*staff3	*staff2	*staff1
*Ivox	*Ivox	*Ivox
*I"Bassus	*I"Tenor	*I"Discantus
*I'B	*I'T	*I'D
*clefG2	*clefG2	*clefG2
*k[]	*k[]	*k[]
*M2/1	*M2/1	*M2/1
*met(C|)	*met(C|)	*met(C|)
=1-	=1-	=1-
0r	0r	1g
.	.	2g/
.	.	2g/
=2	=2	=2
1r	0r	1cc
1g	.	2r
.	.	2dd\
=3	=3	=3
2g/	0r	2dd\
2g/	.	2dd\
1cc	.	4ee\
.	.	4dd\
.	.	4ee\
.	.	4ff\
=4	=4	=4
2r	1g	[0gg
2dd\	.	.
2dd\	2g/	.
2dd\	2g/	.
=5	=5	=5
1ee	0cc	1gg]
2r	.	2r
2cc\	.	2ee\
=6	=6	=6
2cc\	0r	2ee\
2dd\	.	2ff\
2cc\	.	2ee\
4b\	.	4dd\
4a/	.	4cc\
=7	=7	=7
2g/	1r	4b\
.	.	4a/
2f/	.	1dd
2g/	2r	.
4f/	2cc\	[2cc\
4e/	.	.
=8	=8	=8
1d	2dd\	2cc\]
.	2dd\	2b\
1c	1ee	1cc
=9	=9	=9
2r	2r	2r
2c/	2ee\	2cc\
2c/	2ee\	2cc\
2d/	2ff\	2b\
=10	=10	=10
4c/	2ee\	2cc\
4d/	.	.
4e/	4dd\	1gg
4f/	4cc\	.
4g/	4b\	.
4a/	4a/	.
4b\	[2dd\	2ff\
4g/	.	.
=11	=11	=11
2cc\	2dd\]	2ee\
4b\	1cc	4dd\
4a/	.	4cc\
2g/	.	1dd
2g/	2b\	.
=12	=12	=12
0c	0cc	1cc
.	.	2r
.	.	2g/
=13	=13	=13
2r	0r	2g/
2c/	.	2g/
2c/	.	1cc
2c/	.	.
=14	=14	=14
1f	0r	2r
.	.	2cc\
2r	.	2dd\
2f/	.	2dd\
=15	=15	=15
2g/	0r	1ee
2g/	.	.
2.g/	.	2dd\
.	.	[2gg\
4a/	.	.
=16	=16	=16
4b\	1g	2gg\]
4g/	.	.
1cc	.	4ff\
.	.	4ee\
.	2g/	1dd
2b\	2g/	.
=17	=17	=17
2cc\	[0cc	2.cc\
2f/	.	.
.	.	8b/L
.	.	8a/J
2e/	.	2g/
[2f/	.	[2a/
=18	=18	=18
4f/]	0cc]	4a/]
4e/	.	4g/
4f/	.	4a/
8e/L	.	8g/L
8d/J	.	8f/J
2e/	.	2g/
[2f/	.	[2a/
=19	=19	=19
4f/]	2r	4a/]
4c/	.	4g/
2e/	2cc\	1cc
1d	2dd\	.
.	2dd\	2b\
=20	=20	=20
4c/	[0ee	1cc
4d/	.	.
4e/	.	.
4f/	.	.
2g/	.	2b\
2a/	.	2cc\
=21	=21	=21
2g/	0ee]	2b\
2.a/	.	2.cc\
4g/	.	4b\
4a/	.	4cc\
8g/L	.	8b/L
8f/J	.	8a/J
=22	=22	=22
2e/	2r	2.g/
1g	2ee\	.
.	.	4a/
.	1ee	2b\
4f/	.	[2cc\
4e/	.	.
=23	=23	=23
1d	1ff	2cc\]
.	.	2b\
1c	1ee	1cc
=24	=24	=24
2r	2r	2r
2c/	2ee\	2cc\
2c/	2ee\	2cc\
2d/	2ff\	2b\
=25	=25	=25
4c/	2ee\	2cc\
4d/	.	.
4e/	4dd\	1gg
4f/	4cc\	.
4g/	4b\	.
4a/	4a/	.
4b\	[2dd\	2ff\
4g/	.	.
=26	=26	=26
2cc\	2dd\]	2ee\
4b\	1cc	4dd\
4a/	.	4cc\
2g/	.	1dd
2g/	2b\	.
=27	=27	=27
2.c/	2cc\	[0cc
.	4b\	.
4d/	4a/	.
4e/	2g/	.
4c/	.	.
2f/	4a/	.
.	4g/	.
=28	=28	=28
2e/	4a/	0cc]
.	4g/	.
2.f/	4a/	.
.	4g/	.
.	4a/	.
4e/	4g/	.
4f/	4a/	.
8e/L	8g/L	.
8d/J	8f/J	.
=29	=29	=29
1c	1e	1gg
1r	2r	2.gg\
.	2gg\	.
.	.	4ff\
=30	=30	=30
2cc\	2.gg\	2.ee\
2.cc\	.	.
.	4ff\	4dd\
.	2.ee\	2.cc\
4b\	.	.
[2a/	.	.
.	4dd\	4b\
=31	=31	=31
4a/]	2.cc\	1a
4g/	.	.
2.f/	.	.
.	4b\	.
.	1a	2r
4e/	.	.
2d/	.	2dd\
=32	=32	=32
2r	2r	2dd\
2d/	2b\	2dd\
2.c/	2.cc\	2.ee\
4c/	4b\	4dd\
=33	=33	=33
2f/	2a/	2cc\
2g/	2g/	2b\
2d/	2g/	1a
2d/	2f#i/	.
=34	=34	=34
1g	1g	2g/
.	.	2gg\
1r	2r	2.gg\
.	2gg\	.
.	.	4ff\
=35	=35	=35
2cc\	2.gg\	2.ee\
2.cc\	.	.
.	4ff\	4dd\
.	2.ee\	2.cc\
4b\	.	.
[2a/	.	.
.	4dd\	4b\
=36	=36	=36
4a/]	2.cc\	1a
4g/	.	.
2.f/	.	.
.	4b\	.
.	1a	2r
4e/	.	.
2d/	.	2dd\
=37	=37	=37
2r	2r	2dd\
2d/	2b\	2dd\
2.c/	2.cc\	2.ee\
4d/	4b\	4dd\
=38	=38	=38
2f/	2a/	2.cc\
2g/	1g	.
.	.	4b\
2d/	.	2a/
2d/	2f#i/	2a/
=39	=39	=39
2.g/	2g/	2g/
.	2b\	2dd\
4g/	.	.
2.c/	2.cc\	2.ee\
4d/	4b\	4dd\
=40	=40	=40
2f/	2a/	2.cc\
2g/	1g	.
.	.	4b\
2d/	.	1a
2d/	2f#i/	.
=41	=41	=41
1g	0g	0g
2r	.	.
2g/	.	.
=42	=42	=42
2cc\	1r	2r
2dd\	.	2g/
2ee\	2r	2cc\
2ff\	2g/	2dd\
=43	=43	=43
4ee\	2cc\	2ee\
2gg\	.	.
.	2dd\	2ff\
8ff\L	.	.
8ee\J	.	.
4dd\	2ee\	2ee\
4cc\	.	.
4cc\	2ff\	2dd\
4b\	.	.
=44	=44	=44
2cc\	2.ee\	2.gg\
4b\	.	.
4cc\	8dd\L	8ff\L
.	8cc\J	8ee\J
4dd\	4b\	4dd\
4cc\	4a/	4cc\
4b\	[2dd\	2ff\
4a/	.	.
=45	=45	=45
2cc\	4dd\]	2ee\
.	4cc\	.
4b\	1cc	4dd\
4a/	.	4cc\
2g/	.	1dd
2g/	2b\	.
=46	=46	=46
0cl	0ccl	0ccl
==	==	==
*-	*-	*-
!!!RDF**kern: l=long note in original notation
!!!RDF**kern: i=editorial accidental
!!!RDF**kern: V=start of tuplet marker
!!!RDF**kern: Z=end of tuplet marker
!!!ENC:	Chris Gage 06-08-2012
!!!END:	2012/06/10/
!!!EED:	Jesse Rodin
!!!EEV:	2012/06/21/
!!attribution-level@Jos: 4 (questionable)
!!!ONB:	Translated from MusicXML and edited on 2012/06/21/ by Craig Sapp
!!muse2ps: C^@{COA}?\n@{SCT}^i2I150v85,85,150Q16
